X: 630
T: Half Past Four
B: jims roots
M:4/4
L:1/8
R: reel
Q: 1/4=100
K:Amaj
V:1 
(3efg | "A"a2 ab aecA | "D"defd "A"ecAe | "A"a2 ab aecA | "D"defg "A"a2 ef |
"G"=gaba gfge | "D"defd efed | "A"c2 AB cABA | "D"FABF "A"A2 :|
|: DE | "A"A2 ec "D"d2 c2 |{Bc}BAFA "E"BcdB | "A"Acec "D"dAcA | "E"B F2 D "D"A2 G2 |
"A"A2 ec "D"d2 c2 | {Bc}BAFA "E"Bc d2 | "A"e3 e2 f ec |"E"B F2 D "A"A2 :|
% abcbook-tune_id 6298c25ddd3a60e528c80463


% abcbook-boost 0
% abcbook-tablature 
% abcbook-transpose 
% abcbook-lastupdated 1654178398570
% abcbook-soundfonts 
% abcbook-repeats 1


